X: 1
T: Green Fields Of Glentown, The
M: 4/4
L: 1/8
R: reel
K: Ador
D|EA,~A,2 ~E2DB,|G,B,~B,2 G,A,B,D|EA,~A,2 ~E2DE|GBeB dBAB|
eB~B2 eBdB|AE~E2 DG,B,G,|A,E~E2 ~E2DE|GEDB, B,A,A,:|
|:D|~A2EA cAFA|FGDB, G,A,B,D|EA~A2 EABd|edBA aged|
bg~g2 afge|dB~B2 AEDB,|A,E~E2 ~E2DE|GEDB, B,A,A,:|
